static/assets/images/icons/candles.svg

<svg width="256" height="256" viewBox="0 0 256 256" fill="none" xmlns="http://www.w3.org/2000/svg">
<path d="M60.8571 222.562V209.125H47.4286C43.6238 209.125 40.4368 207.835 37.8674 205.255C35.2981 202.675 34.009 199.486 34 195.687V61.3125C34 57.5052 35.2891 54.3161 37.8674 51.745C40.4457 49.174 43.6328 47.884 47.4286 47.875H60.8571V34.4375C60.8571 30.6302 62.1463 27.4411 64.7246 24.87C67.3028 22.299 70.4899 21.009 74.2857 21C78.0815 20.9911 81.273 22.2811 83.8603 24.87C86.4475 27.459 87.7322 30.6482 87.7143 34.4375V47.875H101.143C104.948 47.875 108.139 49.165 110.717 51.745C113.296 54.325 114.58 57.5142 114.571 61.3125V195.687C114.571 199.495 113.282 202.688 110.704 205.268C108.126 207.848 104.939 209.134 101.143 209.125H87.7143V222.562C87.7143 226.37 86.4251 229.563 83.8468 232.143C81.2686 234.723 78.0815 236.009 74.2857 236C70.4899 235.991 67.3028 234.701 64.7246 232.13C62.1463 229.559 60.8571 226.37 60.8571 222.562ZM168.286 222.562V168.812H154.857C151.052 168.812 147.865 167.522 145.296 164.942C142.727 162.362 141.438 159.173 141.429 155.375V88.1875C141.429 84.3802 142.718 81.1911 145.296 78.62C147.874 76.049 151.061 74.759 154.857 74.75H168.286V34.4375C168.286 30.6302 169.575 27.4411 172.153 24.87C174.731 22.299 177.918 21.009 181.714 21C185.51 20.9911 188.702 22.2811 191.289 24.87C193.876 27.459 195.161 30.6482 195.143 34.4375V74.75H208.571C212.376 74.75 215.568 76.04 218.146 78.62C220.724 81.2 222.009 84.3892 222 88.1875V155.375C222 159.182 220.711 162.376 218.133 164.956C215.554 167.536 212.367 168.821 208.571 168.812H195.143V222.562C195.143 226.37 193.854 229.563 191.275 232.143C188.697 234.723 185.51 236.009 181.714 236C177.918 235.991 174.731 234.701 172.153 232.13C169.575 229.559 168.286 226.37 168.286 222.562Z" fill="black"/>
</svg>

<svg xmlns="http://www.w3.org/2000/svg" fill="none" viewBox="0 0 256 256"><path fill="#000" d="M60.857 222.562v-13.437H47.43q-5.707 0-9.562-3.87-3.853-3.87-3.867-9.568V61.313q0-5.712 3.867-9.568 3.868-3.857 9.562-3.87h13.428V34.438q0-5.712 3.868-9.568 3.867-3.857 9.56-3.87 5.695-.014 9.575 3.87 3.881 3.883 3.854 9.567v13.438h13.429q5.707 0 9.574 3.87t3.854 9.568v134.374q0 5.712-3.867 9.581-3.867 3.87-9.561 3.857h-13.43v13.437q0 5.712-3.867 9.581-3.867 3.87-9.561 3.857t-9.561-3.87q-3.868-3.856-3.868-9.568m107.429 0v-53.75h-13.429q-5.708 0-9.561-3.87t-3.867-9.567V88.188q0-5.712 3.867-9.568 3.867-3.857 9.561-3.87h13.429V34.438q0-5.712 3.867-9.568 3.867-3.857 9.561-3.87 5.694-.014 9.575 3.87t3.854 9.567V74.75h13.428q5.708 0 9.575 3.87T222 88.187v67.188q0 5.71-3.867 9.581t-9.562 3.856h-13.428v53.75q0 5.712-3.868 9.581-3.867 3.87-9.561 3.857t-9.561-3.87q-3.867-3.856-3.867-9.568"/></svg>
